/* XPM */
static char * stick_active_xpm[] = {
"24 26 4 1",
" 	c None",
".	c #5a4063",
"+	c #ed981a",
"@@@@@@@@@@@@@@@@@@@@@@@@",
"........................",
"........................",
"........................",
"........................",
"........................",
"........................",
"........................",
"........................",
"...........++...........",
".........++++++.........",
".........++..++.........",
"........++....++........",
"........++....++........",
".........++..++.........",
".........++++++.........",
"...........++...........",
"........................",
"........................",
"........................",
"........................",
"........................",
"........................",
"........................",
"........................",
"........................"};
